static/logos/appbot-wordmark-color.svg

<svg width="100" height="27" viewBox="0 0 100 27" fill="none" xmlns="http://www.w3.org/2000/svg">
<g clip-path="url(#clip0_1_3518)">
<path fill-rule="evenodd" clip-rule="evenodd" d="M97.2821 16.8932C96.1222 16.8932 95.7983 16.0496 95.7983 15.206V7.14786H99.653V3.09744H95.7983V0H91.2214V3.09744H88.812V7.14872H91.2214V15.2393C91.2214 19.9641 93.5094 20.8752 96.2043 20.8752C97.8419 20.8752 98.9308 20.6385 99.653 20.2675V16.488C98.9299 16.7581 98.2376 16.8932 97.2821 16.8932ZM65.9469 5.34872C62.029 5.34872 60.8683 7.13932 60.8683 7.13932V0.239316H55.8085V16.5838L55.805 20.859L59.8623 20.8094C60.0213 20.8083 60.1736 20.7451 60.2866 20.6333C60.3997 20.5216 60.4645 20.3701 60.4674 20.2111L60.4879 18.7667C60.5409 19.3077 61.582 20.041 62.0016 20.3051C64.8914 22.1239 69.1572 20.7376 70.8085 17.9085C70.8606 17.8197 70.911 17.7291 70.9589 17.6376C71.4905 16.6291 71.7794 15.5043 71.9307 14.3752C72.1837 12.4932 72.0803 10.5145 71.2495 8.80256C70.2409 6.72906 68.2905 5.34957 65.9469 5.34957V5.34872ZM67.4059 13.7128C67.3093 14.6821 66.9615 15.6786 66.2008 16.2966C65.6572 16.7385 64.9367 16.9487 64.2384 17.0376C62.1486 17.3026 60.6273 15.9436 60.6273 15.9436V10.4991C60.6273 10.4991 61.8264 9.53846 63.6931 9.54786C64.5871 9.55214 65.5307 9.68547 66.223 10.2453C66.5615 10.5188 66.8238 10.8624 67.0136 11.2453C67.3794 11.9872 67.4888 12.8795 67.4059 13.7128ZM16.3016 16.5094V5.48034H11.8204C11.5298 5.48034 11.2426 5.80256 11.2426 6.0906V7.06581C11.2426 7.06581 10.0529 5.27521 6.13497 5.27521C3.79224 5.27521 1.82728 6.65556 0.818738 8.72821C-0.0120315 10.4402 -0.135963 12.4188 0.117028 14.3009C0.26831 15.4308 0.560618 16.5547 1.09138 17.5632C1.1401 17.6547 1.19138 17.7453 1.24438 17.835C2.89566 20.6632 7.16232 22.0496 10.0521 20.2308C10.4709 19.9667 11.5136 19.2333 11.5666 18.6923C11.5666 18.6923 11.3811 20.3863 13.4059 20.7521C15.7127 21.1692 18.47 20.3846 18.47 20.3846V17.0171C18.47 17.0171 18.1418 17.1966 17.1999 17.1966C16.2572 17.1966 16.3016 16.5094 16.3016 16.5094ZM11.4837 15.8701C11.4837 16.2821 10.3315 16.7128 10.0332 16.8103C9.3341 17.0385 8.54609 17.0615 7.8213 16.9641C7.12386 16.8701 6.40848 16.665 5.86403 16.2231C5.10335 15.606 4.75036 14.6085 4.65378 13.6402C4.57087 12.806 4.67344 11.9137 5.03925 11.1718C5.22899 10.7889 5.48626 10.4453 5.82472 10.1718C6.51617 9.61282 7.49822 9.41709 8.39053 9.47436C8.75803 9.49829 11.4837 9.91795 11.4837 10.4265V15.8701ZM35.1273 8.76325C35.0788 8.67154 35.0284 8.58094 34.976 8.49145C33.3247 5.66239 29.0597 4.27692 26.1691 6.09402C25.7503 6.35897 24.7076 7.09231 24.6546 7.63248C24.6546 7.63248 24.8375 5.93846 22.8127 5.57265C20.5068 5.15556 17.7469 5.94017 17.7469 5.94017V9.30769C17.7469 9.30769 18.1948 9.12906 19.1375 9.12906C20.0803 9.12906 20.1563 9.81624 20.1563 9.81624V26.2094H24.9743V19.259C24.9743 19.259 26.1657 21.0496 30.0845 21.0496C32.4264 21.0496 34.3939 19.6701 35.4008 17.5966C36.2332 15.8855 36.3572 13.9068 36.1042 12.0239C35.9529 10.8949 35.658 9.77009 35.1273 8.76239V8.76325ZM31.1854 15.1538C30.9965 15.5376 30.7375 15.8803 30.3991 16.1538C29.7068 16.7137 28.8418 16.9094 27.9503 16.8513C27.5828 16.8282 24.9743 16.4085 24.9743 15.9V10.4564C24.9743 10.0436 26.0085 9.61282 26.3068 9.51624C27.0059 9.28803 27.7341 9.26496 28.4589 9.36239C29.1572 9.45641 29.8435 9.66154 30.3871 10.1026C31.1478 10.7205 31.4862 11.7179 31.5828 12.6863C31.6657 13.5197 31.5512 14.4128 31.1854 15.1538ZM53.6298 8.76325C53.5817 8.67154 53.5315 8.58094 53.4794 8.49145C51.8273 5.66239 47.5623 4.27692 44.6717 6.09487C44.2529 6.35983 43.2102 7.09316 43.158 7.63333C43.158 7.63333 43.3632 5.93932 41.3392 5.5735C39.0324 5.15641 36.2965 5.94103 36.2965 5.94103V9.30855C36.2965 9.30855 36.6238 9.12991 37.5666 9.12991C38.5085 9.12991 38.464 9.81709 38.464 9.81709V26.2103H43.5238V19.2598C43.5238 19.2598 44.6922 21.0504 48.6102 21.0504C50.9529 21.0504 52.9085 19.6709 53.9162 17.5974C54.7478 15.8863 54.8657 13.9077 54.6127 12.0248C54.4615 10.8957 54.1606 9.77094 53.6298 8.76325ZM49.6879 15.1538C49.4991 15.5376 49.2401 15.8803 48.9016 16.1538C48.2102 16.7137 47.2478 16.9094 46.3563 16.8513C45.9879 16.8282 43.282 16.4085 43.282 15.9V10.4564C43.282 10.0436 44.4136 9.61282 44.7119 9.51624C45.411 9.28803 46.1879 9.26496 46.9136 9.36239C47.611 9.45641 48.3213 9.66154 48.8657 10.1026C49.6264 10.7205 49.9768 11.7179 50.0734 12.6863C50.1563 13.5197 50.0546 14.4128 49.6888 15.1538H49.6879ZM81.5127 4.95299C76.9572 4.95299 73.264 8.55641 73.264 13.0017C73.264 17.447 76.9563 21.0504 81.5119 21.0504C86.0684 21.0504 89.7615 17.447 89.7615 13.0017C89.7615 8.55727 86.0692 4.95299 81.5127 4.95299ZM81.4649 16.5855C79.5691 16.5855 78.0315 14.953 78.0315 12.9393C78.0315 10.9248 79.5691 9.29145 81.4649 9.29145C83.3615 9.29145 84.8982 10.9239 84.8982 12.9393C84.8982 14.953 83.3615 16.5863 81.4649 16.5863V16.5855Z" fill="black"/>
</g>
<defs>
<clipPath id="clip0_1_3518">
<rect width="100" height="26.4957" fill="white"/>
</clipPath>
</defs>
</svg>

<svg xmlns="http://www.w3.org/2000/svg" width="237.037" height="64" fill="none" viewBox="0 0 100 27"><g clip-path="url(#a)"><path fill="#000" fill-rule="evenodd" d="M97.282 16.893c-1.16 0-1.484-.843-1.484-1.687V7.148h3.855v-4.05h-3.855V0h-4.577v3.097h-2.409V7.15h2.41v8.09c0 4.725 2.287 5.636 4.982 5.636 1.638 0 2.727-.236 3.449-.608v-3.779c-.723.27-1.415.405-2.37.405ZM65.947 5.35c-3.918 0-5.079 1.79-5.079 1.79V.24h-5.06v16.345l-.003 4.275 4.057-.05a.61.61 0 0 0 .605-.598l.02-1.444c.054.54 1.095 1.274 1.515 1.538 2.89 1.819 7.155.433 8.806-2.396.053-.09.103-.18.15-.271.532-1.009.821-2.134.973-3.263.253-1.882.15-3.86-.681-5.572-1.01-2.074-2.96-3.453-5.303-3.453v-.001Zm1.459 8.364c-.097.97-.445 1.966-1.205 2.584-.544.441-1.264.652-1.963.74-2.09.266-3.61-1.093-3.61-1.093v-5.445s1.198-.96 3.065-.951c.894.004 1.838.137 2.53.697.338.274.6.617.79 1 .366.742.476 1.635.393 2.468Zm-51.104 2.796V5.48H11.82c-.29 0-.577.323-.577.61v.976s-1.19-1.79-5.108-1.79c-2.343 0-4.308 1.38-5.316 3.452-.831 1.712-.955 3.69-.702 5.573.151 1.13.444 2.254.974 3.262.05.092.1.182.153.272 1.652 2.828 5.918 4.215 8.808 2.396.419-.264 1.462-.998 1.515-1.539 0 0-.186 1.694 1.839 2.06 2.307.417 5.064-.367 5.064-.367v-3.368s-.328.18-1.27.18c-.943 0-.898-.688-.898-.688Zm-4.818-.639c0 .412-1.152.843-1.45.94-.7.229-1.488.252-2.213.154-.697-.094-1.413-.299-1.957-.74-.76-.618-1.114-1.616-1.21-2.584-.083-.834.02-1.726.385-2.468.19-.383.447-.727.786-1 .691-.56 1.673-.755 2.566-.698.367.024 3.093.444 3.093.953v5.443Zm23.643-7.107a7.189 7.189 0 0 0-.151-.272c-1.651-2.829-5.916-4.214-8.807-2.397-.419.265-1.461.998-1.514 1.538 0 0 .182-1.694-1.842-2.06-2.306-.416-5.066.368-5.066.368v3.368s.448-.179 1.39-.179c.943 0 1.02.687 1.02.687V26.21h4.817v-6.95s1.192 1.79 5.11 1.79c2.342 0 4.31-1.379 5.317-3.452.832-1.712.956-3.69.703-5.573-.151-1.13-.446-2.254-.977-3.262v.001Zm-3.942 6.39a2.94 2.94 0 0 1-.786 1c-.692.56-1.557.756-2.449.698-.367-.023-2.976-.442-2.976-.951v-5.444c0-.412 1.035-.843 1.333-.94.699-.228 1.427-.251 2.152-.154.698.094 1.384.3 1.928.74.76.618 1.1 1.616 1.196 2.584.083.834-.032 1.727-.398 2.468Zm22.445-6.39a7.032 7.032 0 0 0-.15-.272c-1.653-2.829-5.918-4.214-8.808-2.396-.42.265-1.462.998-1.514 1.538 0 0 .205-1.694-1.819-2.06-2.307-.417-5.042.368-5.042.368v3.368s.327-.18 1.27-.18c.941 0 .897.688.897.688V26.21h5.06v-6.95s1.168 1.79 5.086 1.79c2.343 0 4.298-1.38 5.306-3.453.832-1.71.95-3.69.697-5.572-.151-1.13-.452-2.254-.983-3.262Zm-3.942 6.39a2.937 2.937 0 0 1-.786 1c-.692.56-1.654.756-2.546.698-.368-.023-3.074-.442-3.074-.951v-5.444c0-.412 1.132-.843 1.43-.94.699-.228 1.476-.251 2.202-.154.697.094 1.407.3 1.952.74.76.618 1.11 1.616 1.207 2.584.083.834-.018 1.727-.384 2.468h-.001Zm31.825-10.2c-4.556 0-8.249 3.603-8.249 8.049 0 4.445 3.692 8.048 8.248 8.048 4.556 0 8.25-3.603 8.25-8.048s-3.693-8.049-8.25-8.049Zm-.048 11.633c-1.896 0-3.434-1.633-3.434-3.647s1.538-3.648 3.434-3.648c1.897 0 3.433 1.633 3.433 3.648 0 2.014-1.536 3.647-3.433 3.647Z" clip-rule="evenodd"/></g><defs><clipPath id="a"><path fill="#fff" d="M0 0h100v26.496H0z"/></clipPath></defs></svg>
